!!!!SEGMENT: pl-wtm--r-90-n--001-006_noskowski-zygmunt--piesni-op-63-szedl-tu-tedy-czlek-ubogi.krn
!!!cenid: 18xx:2125
!!!COM: Noskowski, Zygmunt
!!!COM-rismID: pe106604
!!!CDT: 1846/05/02-1909/07/23
!!!CNT: Polish
!!!GTL: Pieśni op. 63
!!!OTL: Szedł tu tędy człek ubogi
!!!OMV: 006
!!!PDT: 1899
!!!AGN: Secular; Song
!!!YEC: Copyright 2022 Narodowy Instytut Fryderyka Chopina (https://polishscores.org)
!!!YEM: License CC-BY-4.0 (https://creativecommons.org/licenses/by/4.0)
!!!SMS-siglum: PL-Wtm
!!!SMS-shelfmark: R 90/N
!!!SMS-shelfwork: 001-006 G
!!!SMS-variant:
!!!SMS-altvar:
!!!NIFC-rismSourceID: 1001100014
!!!NIFC-rismChildID: 1001100014
!!!NIFC-islandoraID:
!!!URL-pdf-islandora:
!!!URL-scan:
!!!IIIF:
!!!ONB-nifc: UWAGA: w zbiorze 10 krótkich pieśni
!!!AIN: 1 piano
!!!key: D
!!!OMD: Andantino
**kern	**kern	**text
*part1	*part1	*
*staff2	*staff1	*
*Ipiano	*Iempty	*
*I"[Piano]	*	*
*I'[Piano]	*	*
*mI"Pianoforte	*	*
*mI'pf	*	*
*clefF4	*clefG2	*
*k[f#c#]	*k[f#c#]	*
*D:	*D:	*
*M4/4	*M4/4	*
*met(c)	*met(c)	*
=1	=1	=1
*	*^	*
!	!LO:TX:a:i:t=Andantino:mod=	!	!
4A 4D\	4.f#/	2d\	Szedł
4A 4BB\	.	.	.
.	8g/	.	tu
4A 4G 4C#\	(<8e/L	2rcyy	tę-
.	8f#/J)	.	.
4A 4F# 4D\	4d/	.	-dy
*	*v	*v	*
=2	=2	=2
4A 4D\	4.a 4.f#/	człek
4A 4BB\	.	.
.	8b 8g/	u-
4A 4C#\	8gL 8e/	-bo-
.	8aJ 8f#/	.
4A 4D\	4f# 4d/	-gi
=3	=3	=3
4A 4F#\	8.dd 8.d/	Zna-
.	16d/	-lazł
4r	8d/	pie-
.	8e/	-niądz
4d 4A\	4f#/	ko-
4d 4G#X\	4b 4e/	-ło
=4	=4	=4
*	*^	*
4A\	(>4.e/	4d\	dro-
4A 4AA\	.	4c#\	.
.	8g/)	.	.
2A 2D\	2f#/	2d\	-gi
*	*v	*v	*
=5||	=5||	=5||
*M3/4	*M3/4	*
8AA\L	8.a/	Za
16GL 16C#\	.	.
16GJJ 16C#\	16g/	ten
8GL 8D\	4.b/	pie-
8GJ 8D\	.	.
4G 4E\	.	.
.	8c#/	-niądz
!!LO:LB:g=original
=6	=6	=6
8AL 8F#\	8d/	o-
8GJ 8E\	8e 8c#/	-ka-
8AL 8D\	8gL 8e/	-za-
8AJ 8D\	8f#J 8d/	.
8AL 8F#\	4a 4d/	-le
8AJ 8F#\	.	.
=7	=7	=7
8E\L	8.g#X/	Ku-
16dL 16B\	.	.
16dJJ 16B\	16a/	-pił
8dL 8F#\	4.cc#\	zie-
8d\J 8F#\	.	.
8dL 8G#X\	.	.
8dJ 8G#\	8b\	-mi
=8	=8	=8
8dL 8A\	8f#/	czte-
8BJ 8A\	8g#X/	-ry
8dL 8A\	(<8e/L	ca-
8dJ 8A\	8b/J)	.
8c#L 8A\	4a/	-le
8c#J 8Gn\	.	.
=9	=9	=9
8F#\L	8b/	Za
16dL 16A\	8a/	ten
16dJJ 16A\	.	.
8dL 8A\	4.dd/	pie-
8dJ 8A\	.	.
4D\	.	.
.	8f#/	-niądz
!!LO:LB:g=original
=10	=10	=10
8E\L	8.g 8.e/	o-
8F#\J	.	.
.	16f# 16d/	-ka-
4G\	(<8eL 8d/	-za-
.	8cc#/J)	.
4e 4d 4G#X\	4b/	-le
=11	=11	=11
4f# 4d 4A\	8.a/	Ku-
.	16b/	-pił
4r	8f#/	zie-
.	8g/	-mi
4G 4AA\	8a/	czte-
.	8c#/	-ry
=12	=12	=12
4G 4AA\	4e 4c#/	ca-
!	!	!LO:MO:mod=-le.
4F# 4D\	4d/	-le
4r	4r	.
==	==	==
*-	*-	*-
!!!system-decoration: {(s1,s2)}
!!!RDF**kern: > = above
!!!RDF**kern: < = below
!!!filter-modern: sic -sq | autostem -r | tie -s  | modori -m
!!!ENC: Mateusz Solarz
!!!END: 2021-05-11
!!!EED: Antoni Szymański
!!!EEV: 2021-06-05
!!!ENC-modern: Andrzej Borzym
!!!END-modern: 2022-08-22
